packages/ui-icons/svg/Solid/ms-excel.svg

<svg viewBox="0 0 1920 1920" version="1.1" xmlns="http://www.w3.org/2000/svg">
    <path d="M1129.41176,620.764706 L1129.41176,959.588235 L1468.23529,959.588235 L1468.23529,1411.35294 L338.823529,1411.35294 L338.823529,620.764706 L1129.41176,620.764706 Z M1468.23529,185.873412 C1507.76471,199.652235 1903.17176,620.809882 1903.17176,620.809882 L1468.23529,620.809882 L1468.23529,185.873412 Z M451.764706,959.588235 L677.647059,959.588235 L677.647059,733.705882 L451.764706,733.705882 L451.764706,959.588235 Z M451.764706,1298.41176 L677.647059,1298.41176 L677.647059,1072.52941 L451.764706,1072.52941 L451.764706,1298.41176 Z M790.588235,1298.41176 L1016.47059,1298.41176 L1016.47059,1072.52941 L790.588235,1072.52941 L790.588235,1298.41176 Z M790.588235,959.588235 L1016.47059,959.588235 L1016.47059,733.705882 L790.588235,733.705882 L790.588235,959.588235 Z M1129.41176,1298.41176 L1355.29412,1298.41176 L1355.29412,1072.52941 L1129.41176,1072.52941 L1129.41176,1298.41176 Z M1355.29412,733.705882 L1355.29412,169 L0,169 L0,1750.17647 L1920,1750.17647 L1920,733.705882 L1355.29412,733.705882 Z" stroke="none" stroke-width="1" fill-rule="evenodd"/>
</svg>

<svg viewBox="0 0 1920 1920" xmlns="http://www.w3.org/2000/svg">
    <path d="M1129.412 620.765v338.823h338.823v451.765H338.824V620.765h790.588Zm338.823-434.892c39.53 13.78 434.937 434.937 434.937 434.937h-434.937V185.873ZM451.765 959.588h225.882V733.706H451.765v225.882Zm0 338.824h225.882v-225.883H451.765v225.883Zm338.823 0h225.883v-225.883H790.588v225.883Zm0-338.824h225.883V733.706H790.588v225.882Zm338.824 338.824h225.882v-225.883h-225.882v225.883Zm225.882-564.706V169H0v1581.176h1920V733.706h-564.706Z" fill-rule="evenodd"/>
</svg>
